X: 1
T: Galway, The
C: Larry Redican
N: Adapted for flute
M: 4/4
L: 1/8
R: reel
K: Gmaj
B|AGEG DGBD|BAGA BedB|AGED BDAD|
|G~E2B GEED|E2 DE GEDE|D2 GE DGGD|
|~E3G DEGA|1 BdAB G3:|2 BdAB G3 B||
|:d~G3 EGDG|EGGD GBdf|e~c3 AcGE|
|DFAd {a}fedc|BG(3GGG EGDG|EGGD GBdf|
|e~c3 ef{b}ge|1 dBAB G3 B:|2 dBAB G3||
